X: 1
T: Hora Fetelor    [G]
O: Romania
Z: 2005 John Chambers <jc@trillian.mit.edu>
N: Made by combining versions from Aubrey Jaffer, Tom Pixton and Seymour Shlien
N: Aubrey plays Adim7 chords on his cimbalom, but I prefer Cm chords on my accordion.
M: 6/16
L: 1/16
%Q: 3/8=100
P: A+(ABB)x2
K: G
% - - - - - - - - - - - - - - -
z3 z2D |\
"G"D2G- G3 | "F"A2B- B3 | "E"c3- (4cBA^G | "Am"A3- A2G |\
[1 "Cm"B2c c2c | d_ef edc |  "G"d6 :|\
[2 "Cm"Bcd cB_A | "D7"cB_A AGF | "G"G6 |]
|: z2B c2d |\
"Cm"_e3- edc | "G"d3- d2c | "E7"Bcd c2B | "Am"cBA A3 |\
"Cm"zBc c2c | d_ef edc | "G"d6 | z2d _e2f | "Cm"g3- g2f |
"Cm"(4_e2d2 c2B2 | "E7"gf_e dcB | "Am"cBA A3 | "Cm"Bcd cB_A |\
"Fm"cB_A AGF |["1-n" "G"G6 :|["Last" "G"Gz2 "D7"Dz2 | "G"Gz2 |]
% - - - - - - - - - - - - - - -
% %text John Chambers' merged version

%%sep 1 1 500

